X: 474
T: Russian Sher
N: Multiple sources, combined
Z: 2004 by John Chambers <jc:trillian.mit.edu>
D: I.J.Hochman's Orchestra "Klezmer Music" (Global Village 104, Folkways 34021)
%%slurgraces 1
M: 2/4
L: 1/16
K: E exp =f^g
"A"\
|:"E"e4 ed^cd | f2 e4 e2 | "Dm"dggd dggd | dggf feed |
| "E"e4 ed^cd | f2 e4 ba | gaba "Dm"Tg3f |1,3 "E"efga "Dm"bagf :|2,4 ~f2 e4 z2 :|
"B"\
|:"E"g3e "Am"a3e | "E"b4 "(Am)"z2c'2 | "Am"(3c'2b2a2 "E"(3b2a2g2 | "Dm"(3a2g2f2 "E"(3g2f2e2 |
| "E"g3e "Am"a3e | "E"b4 z2d'c' | "Dm"bc'ba g2f2 | "E"f2 e4 z2 :|[K:=g]
K:Dmix
"C"\
|:"D"f3a {a}g2{g}f2 |    a6 d'c' | c'bba aggf | f3a fed2 |
| "D"f3a {a}g2{g}f2 | "G"g6 ba  | "E"^gaba "Dm"g3{ag}=f | "E"=f2 e4 z2 :|
